X:32
T:Lichtmann 32
C:L. Beethoven
M:2/4
L:1/8
Q:"Allegro" 1/4=108
K:A
!mf!c/d/"_playfully"|(ec) BA|G(f2e)|Bc de|c3 c/d/|(ec) BA|G (f2e)|Bc de|
A3 B/c/|dd dd|(d/e/)d/c/ BB/c/|dd dd|(d/e/)d/c/ BB/c/|d (d2c)|f (f2e)|Bc de|
(d2c)B/c/|dd dd|(d/e/)d/c/ BB/c/|dd dd|(d/e/)d/c/ BB/c/|d (d2c)|f (f2e)|Bc de|
A3 c/d/|(ec) BA|G (f2e)|Bc de|c3 c/d/|(ec) BA|G (f2e)|Bc de|A3|]

